X:1
T:Alive Again
T:Alive Again
T:Paul Rader
T:Paul Rader, 1920
T:Public Domain Courtesy of the Cyber Hymnal™
C:Paul Rader
Z:Public Domain
Z:Courtesy of the Cyber Hymnal™
%%score ( 1 2 ) ( 3 4 )
L:1/8
Q:1/4=115
M:4/4
K:D
V:1 treble 
V:2 treble 
V:3 bass 
V:4 bass 
V:1
 [DA]2 [DF][DE] D2 [DE][DF] | [FA]2 [GA]2 A4 | [DB]2 [DB][DB] D2 [DE]D | [DF]6 z2 | %4
w: 1.~Ma- ry be- held Him, and|“Mas- ter!” cried,|Af- ter He came from the|tomb;|
w: 2.~Pe- ter be- held Him there|on the shore,|Ate with Him there by the|sea;|
w: 3.~Thom- as be- held Him there|in the room,|Called Him his mas- ter and|Lord,|
 [DA]2 [DA][FA] [Fd]2 [Dd]2 | [DA]2 [CA][DA] [DB]4 | [DA]2 [DA][DA] [CE]2 [CF]2 | D6 z2 || %8
w: Sud- den- ly Je- sus|stood in their midst,|En- tered the tight shut|room.|
w: Je- sus was say- ing,|with lips once dead,|“Pe- ter, dost thou love|Me?”|
w: Put forth his fing- ers|in- to the holes|Made by the nails and|sword.|
"^Refrain" [FA]2 [DF][EG] [FA]2 [FB][DF] | [CA]3 [CE] [EG]4 | [EG]2 [CE][DF] [EG]2 [Gc][GB] | %11
w: |||
w: He who was dead is a-|live a- gain!|He who was dead is a-|
w: |||
 [FB]3 [DF] [FA]4 | [Fd]2 [Fd][Fd] [FA]2 [DF][DF] | [DB]2 [^DB][DB] [EG]4 | %14
w: |||
w: live a- gain!|Brok- en the stout, i- cy|clutch- es of death—|
w: |||
"^a tempo" A2 FD A2 [DA][Fd] | [Ge]3 [Fd] [Fd]4 |] %16
w: ||
w: He who was dead is a-|live a- gain!|
w: ||
V:2
 x4 D2 x2 | x4 (F2 D2) | x4 D2 D x | x8 | x8 | x8 | x8 | D6 x2 || x8 | x8 | x8 | x8 | x8 | x8 | %14
 A2 FD A2 x2 | x8 |] %16
V:3
 [D,F,]2 [D,A,][D,G,] [D,F,]2 [D,G,][D,A,] | [D,D]2 [D,B,]2 (A,2 F,2) | %2
 G,2 G,G, [G,,B,]2 [G,,_B,][G,,B,] | [D,A,]6 z2 | [D,F,]2 [D,F,][D,A,] [B,,B,]2 [B,,F,]2 | %5
 [D,F,]2 [E,G,][F,A,] G,4 | [A,,F,]2 [A,,F,][A,,F,] [A,,G,]2 [A,,A,]2 | [D,F,]6 z2 || %8
 [D,D]2 [D,A,][D,A,] [D,D]2 [D,D][D,A,] | [E,A,]3 [C,A,] [A,,C]4 | [A,C]2 A,A, [A,C]2 [A,E][A,C] | %11
 [D,D]3 [D,A,] [D,D]4 | [D,A,]2 [D,A,][D,A,] [D,D]2 [D,A,][D,A,] | [G,B,]2 [F,A,][F,A,] [E,B,]4 | %14
 A,2 F,D, A,2 [F,A,][D,A,] | [A,,C]3 [D,A,] [D,A,]4 |] %16
V:4
 x8 | x4 D,4 | G,2 G,G, x4 | x8 | x8 | x4 G,4 | x8 | x8 || x8 | x8 | x2 A,A, x4 | x8 | x8 | x8 | %14
 A,2 F,D, A,2 x2 | x8 |] %16

